localPackages/DesignSystem/Sources/DesignSystem/Resources/Assets.xcassets/IconSet/ic-file-shapes.imageset/ic-file-shapes.svg

<svg width="24" height="24" viewBox="0 0 24 24" fill="none" xmlns="http://www.w3.org/2000/svg">
<g id="ic-file-shapes">
<path id="Icon" fill-rule="evenodd" clip-rule="evenodd" d="M19.5 19.5C19.5 20.3284 18.8284 21 18 21H6C5.17157 21 4.5 20.3284 4.5 19.5V4.5C4.5 3.67157 5.17157 3 6 3H13.5V6.75C13.5 7.99264 14.5074 9 15.75 9H19.5V19.5ZM18.8787 7.5L15 3.62132V6.75C15 7.16421 15.3358 7.5 15.75 7.5H18.8787ZM3 4.5C3 2.84315 4.34315 1.5 6 1.5H13.7574C14.553 1.5 15.3161 1.81607 15.8787 2.37868L20.1213 6.62132C20.6839 7.18393 21 7.94699 21 8.74264V19.5C21 21.1569 19.6569 22.5 18 22.5H6C4.34315 22.5 3 21.1569 3 19.5V4.5ZM8.25 15.75V17.25H9.75V15.75H8.25ZM7.5 14.25C7.08579 14.25 6.75 14.5858 6.75 15V18C6.75 18.4142 7.08579 18.75 7.5 18.75H10.5C10.9142 18.75 11.25 18.4142 11.25 18V15C11.25 14.5858 10.9142 14.25 10.5 14.25H7.5ZM15.75 12C15.75 12.4142 15.4142 12.75 15 12.75C14.5858 12.75 14.25 12.4142 14.25 12C14.25 11.5858 14.5858 11.25 15 11.25C15.4142 11.25 15.75 11.5858 15.75 12ZM17.25 12C17.25 13.2426 16.2426 14.25 15 14.25C13.7574 14.25 12.75 13.2426 12.75 12C12.75 10.7574 13.7574 9.75 15 9.75C16.2426 9.75 17.25 10.7574 17.25 12Z" fill="#0F0F0F"/>
</g>
</svg>

<svg xmlns="http://www.w3.org/2000/svg" width="24" height="24" viewBox="0 0 24 24">
  <g class="ic-file-shapes">
    <path fill-rule="evenodd" d="M19.5 19.5A1.5 1.5 0 0 1 18 21H6a1.5 1.5 0 0 1-1.5-1.5v-15A1.5 1.5 0 0 1 6 3h7.5v3.75A2.25 2.25 0 0 0 15.75 9h3.75v10.5Zm-.621-12L15 3.621V6.75c0 .414.336.75.75.75h3.129ZM3 4.5a3 3 0 0 1 3-3h7.757a3 3 0 0 1 2.122.879L20.12 6.62A3 3 0 0 1 21 8.743V19.5a3 3 0 0 1-3 3H6a3 3 0 0 1-3-3v-15Zm5.25 11.25v1.5h1.5v-1.5h-1.5Zm-.75-1.5a.75.75 0 0 0-.75.75v3c0 .414.336.75.75.75h3a.75.75 0 0 0 .75-.75v-3a.75.75 0 0 0-.75-.75h-3ZM15.75 12a.75.75 0 1 1-1.5 0 .75.75 0 0 1 1.5 0Zm1.5 0a2.25 2.25 0 1 1-4.5 0 2.25 2.25 0 0 1 4.5 0Z" class="Icon"/>
  </g>
</svg>
